assets/img/email.svg

<svg xmlns="http://www.w3.org/2000/svg" width="47.156" height="35.488"><path fill-rule="evenodd" clip-rule="evenodd" fill="#585959" d="M0 35.488V.004h46.943c.043 0 .09-.011.127.003a.175.175 0 0 1 .079.082c.013.028.003.067.003.102l-.001 35.114c0 .202.024.184-.186.184H.181L0 35.488zm5.412-32.33l-.044.049c.047.029.102.051.14.089l16.697 16.695c.026.027.053.056.081.081.333.299.702.531 1.156.579.506.053.936-.159 1.293-.48.478-.431.922-.899 1.377-1.354L41.64 3.29c.037-.037.072-.075.126-.132H5.412zm.009 29.164h36.286L29.371 19.986c-.017.022-.041.063-.074.097-.718.719-1.431 1.44-2.156 2.151-.23.226-.478.439-.741.623-1.068.745-2.239 1.104-3.549.889a5.047 5.047 0 0 1-2.678-1.345c-.796-.753-1.555-1.546-2.33-2.32A11656230905004932 11656230905004932 0 0 0 5.421 32.322zM43.994 5.44L31.688 17.747l12.306 12.306V5.44zM3.149 30.056l12.298-12.298C11.353 13.662 7.242 9.553 3.149 5.459v24.597z"/></svg>

<svg width="48" height="36" viewBox="0 0 48 36" fill="none" xmlns="http://www.w3.org/2000/svg">
<g clip-path="url(#clip0)">
<path fill-rule="evenodd" clip-rule="evenodd" d="M0 0.0039978L47.07 0.00699782C47.07 0.00699782 47.1512 29.8058 47.151 35.305C47.151 35.6577 4.27533 35.489 0.181 35.489L0 0.0039978ZM5.412 3.158L5.368 3.207C5.415 3.236 5.47 3.258 5.508 3.296L22.205 19.991C22.231 20.018 22.258 20.047 22.286 20.072C22.619 20.371 22.988 20.603 23.442 20.651C23.948 20.704 24.378 20.492 24.735 20.171C25.213 19.74 25.657 19.272 26.112 18.817L41.64 3.29C41.677 3.253 41.712 3.215 41.766 3.158H5.412ZM5.421 32.322H41.707L29.371 19.986C29.354 20.008 29.33 20.049 29.297 20.083C28.579 20.802 27.866 21.523 27.141 22.234C26.911 22.46 26.663 22.673 26.4 22.857C25.332 23.602 24.161 23.961 22.851 23.746C21.8427 23.5791 20.9089 23.1101 20.173 22.401C19.377 21.648 18.618 20.855 17.843 20.081L5.421 32.322ZM43.994 5.44L31.688 17.747L43.994 30.053V5.44ZM3.149 30.056L15.447 17.758C11.353 13.662 7.242 9.553 3.149 5.459V30.056Z" fill="#585959"/>
</g>
<defs>
<clipPath id="clip0">
<rect width="47.156" height="35.488" fill="white"/>
</clipPath>
</defs>
</svg>
